X:47 
T:Reel No. 22 
T:from James E Frill's Musick Book  p. 47 bottom 
Z:Sarah Gowan 
M:2/4 
L:1/4 
K:Em 
e2e2|cAcA|Bcdc|BG G2| ABcd | efge |agae|cA A2:| 
agae| cdef| g2 dc| BG G2|ABcd| efge| agae|cA A2:|
